X: 2
T: St Patricks An Dro
M: 2/4
L: 1/8
R: barndance
K: Cdor
| :c/d/e/d/ cg | ec dg | f/g/f/e d>c | ec d2 | 
c/d/e/d/ cg | ec dg | f/g/f/e dc | e/c/d/e/ c2 : |
| : c/d/e/f/ g>g | fb ge | c/d/e/g/ f>g | f/g/f/e/ d2 | 
c/d/e/f/ g>g | fb ge | c/d/e/g/ f>d | e/c/d/B/ c2 : |
